X: 6781
T: Chapel Bell, The
R: jig
M: 6/8
K: Edorian
dc|:B2E EFA|Bde d3|eBB BAF|d2e dBA|
B2E EFA|Bde d3|eBB BAF|AFE E2A:|
|:B2e efe|def f2e|dBB BAB|d2e dBA|B2e efe|
def f2e|1 dBB BAF|AFE E2A:|2 d2B BAF|AFE E2A||

